!!!SOCIAL_FUNCTION:	deer dance songs
!!!PDT:	1932
!!!OTL: No_72_The_Blackbirds_are_Dancing.krn
!!!REG: Southwest
!!!LANG: Non-Tone
!!!LING_GROUP: Yuman-Cochimi
**kern	**kern
*staff2	*staff1
=1-	=1-
*clefF4	*clefF4
*k[f#c#]	*k[f#c#]
*M3/4	*M3/4
2r	4r
.	8.r
.	16A\
8r	8.A\L
8GG/	.
.	16A\Jk
=2	=2
8r	8.e\L
8GG/	.
.	16d\Jk
8r	4cn\
8GG/	.
8r	12A\
.	12r
8GG/	.
.	12A\
=3	=3
8r	8.d\L
8GG/	.
.	16B\Jk
8r	8A\
8GG/	8r
8r	8.r
8GG/	.
.	16A\
=4	=4
8r	8.d\L
8GG/	.
.	16B\Jk
8r	4A\
8GG/	.
8r	12r
.	12F#\L
8GG/	.
.	12A\J
=5	=5
8r	12A\L
.	12A\
8GG/	.
.	12A\J
8r	4A\
8GG/	.
8r	12r
.	12F#\L
8GG/	.
.	12A\J
=6	=6
8r	12A\L
.	12A\
8GG/	.
.	12A\J
8r	8A\
8GG/	16r
.	16A\
8r	8.A\L
8GG/	.
.	16A\Jk
=7	=7
8r	8.e\L
8GG/	.
.	16d\Jk
8r	4cn\
8GG/	.
8r	12A\
.	12r
8GG/	.
.	12A\
=8	=8
8r	8.d\L
8GG/	.
.	16B\Jk
8r	8A\
8GG/	8r
8r	8.r
8GG/	.
.	16A\
=9	=9
8r	8.d\L
8GG/	.
.	16B\Jk
8r	4A\
8GG/	.
8r	12r
.	12F#\L
8GG/	.
.	12A\J
=10	=10
8r	12A\L
.	12A\
8GG/	.
.	12A\J
8r	4A\
8GG/	.
8r	12r
.	12F#\L
8GG/	.
.	12A\J
=11	=11
8r	12A\L
.	12A\
8GG/	.
.	12A\J
8r	8A\
8GG/	8r
8r	12r
.	12F#\L
8GG/	.
.	12A\J
=12	=12
8r	4A\
8GG/	.
8r	8.r
8GG/	.
.	16A\
8r	8.A\L
8GG/	.
.	16A\Jk
=13	=13
8r	8.e\L
8GG/	.
.	16d\Jk
8r	4cn\
8GG/	.
8r	12A\L
.	12A\
8GG/	.
.	12A\J
=14	=14
8r	8.d\L
8GG/	.
.	16B\Jk
8r	4A\
8GG/	.
8r	8.A\L
8GG/	.
.	16A\Jk
=15	=15
8r	8.d\L
8GG/	.
.	16B\Jk
8r	4A\
8GG/	.
8r	12F#\L
.	12F#\
8GG/	.
.	12A\J
=16	=16
8r	8.A\L
8GG/	.
.	16A\Jk
8r	8.A\L
8GG/	.
.	16A\Jk
8r	8.r
8GG/	.
.	16B\
=17	=17
8r	8.d\L
8GG/	.
.	16B\Jk
8r	4A\
8GG/	.
8r	12F#\L
.	12F#\
8GG/	.
.	12A\J
=18	=18
8r	8.A\L
8GG/	.
.	16A\Jk
8r	4A\
8GG/	.
8r	12A\L
.	12A\
8GG/	.
.	12A\J
=19||	=19||
*M2/4	*M2/4
8r	8.r
8GG/	.
.	16A\
8r	8.A\L
8GG/	.
.	16A\Jk
=20||	=20||
*M3/4	*M3/4
8r	8.e\L
8GG/	.
.	16d\Jk
8r	4cn\
8GG/	.
8r	12A\L
.	12A\
8GG/	.
.	12B\J
=21	=21
8r	8.d\L
8GG/	.
.	16B\Jk
8r	8.A\L
8GG/	.
.	16A\Jk
8r	8.r
8GG/	.
.	16B\
=22	=22
8r	8.d\L
8GG/	.
.	16B\Jk
8r	4A\
8GG/	.
8r	12F#\L
.	12F#\
8GG/	.
.	12A\J
=23	=23
8r	8.A\L
8GG/	.
.	16A\Jk
8r	8.F#\L
8GG/	.
.	16F#\Jk
8r	8.r
8GG/	.
.	16B\
=24	=24
8r	8.d\L
8GG/	.
.	16B\Jk
8r	8A\
8GG/	16r
.	16F#\
8r	12F#\L
.	12A\
8GG/	.
.	12A\J
=25	=25
8r	8.A\L
8GG/	.
.	16A\Jk
8r	8.A\L
8GG/	.
.	16F#\Jk
8r	8F#\L
8GG/	8A\J
=26	=26
8r	8.A\L
8GG/	.
.	16A\Jk
8r	4A\
8GG/	.
4r	4r
==	==
*-	*-
